X:1
T:Five Leaved Clover -- Reel
R:reel
B:Ryan's Mammoth Collection
Z: Contributed by Ray Davies,  ray:davies99.freeserve.co.uk
M:C|
L:1/8
K:Amin
ved"^Segno"|cAAB AGE^F|GEAE GEDG|EAAB cBcd|eage dfed|
cAAB AGE^F|GEAE GDD2|e2e^c dfed|cAB^G A2H::
(ed)|eaaa agef|geae gede|c2ce d2df|eage d2d2|
eaaa agef|geae gede|c2ce d2~d2|(ea)ge dfed"^Segno""_D.C.":|
